src/images/Ishan/Pride.svg

<svg enable-background="new 0 0 100 100" viewBox="0 0 100 100" xmlns="http://www.w3.org/2000/svg"><g fill="#eb0029"><path d="m5273.1 2387.6v-2c0-2.8-5-4-9.7-4s-9.7 1.3-9.7 4v2c0 1.8.7 3.6 2 4.9l5 4.9c.3.3.4.6.4 1v6.4c0 .4.2.7.6.8l2.9.9c.5.1 1-.2 1-.8v-7.2c0-.4.2-.7.4-1l5.1-5c1.3-1.3 2-3.1 2-4.9zm-9.7-.1c-4.8 0-7.4-1.3-7.5-1.8.1-.5 2.7-1.8 7.5-1.8s7.3 1.3 7.5 1.8c-.2.5-2.7 1.8-7.5 1.8z"/><path d="m5268.4 2397.8c-.6 0-1 .4-1 1s.4 1 1 1h4.3c.6 0 1-.4 1-1s-.4-1-1-1z"/><path d="m5272.7 2401.2h-4.3c-.6 0-1 .4-1 1s.4 1 1 1h4.3c.6 0 1-.4 1-1s-.4-1-1-1z"/><path d="m5272.7 2404.5h-4.3c-.6 0-1 .4-1 1s.4 1 1 1h4.3c.6 0 1-.4 1-1 0-.5-.4-1-1-1z"/><path d="m16.3 23.5c-7.6 0-13.8 6.2-13.8 13.8s6.2 13.8 13.8 13.8 13.8-6.2 13.8-13.8-6.1-13.8-13.8-13.8zm0 24.6c-5.9 0-10.8-4.8-10.8-10.8 0-5.9 4.8-10.8 10.8-10.8 5.9 0 10.8 4.8 10.8 10.8 0 5.9-4.8 10.8-10.8 10.8z"/><path d="m19.2 40.2s-1 1.2-2.9 1.2c-1.8 0-2.8-1.2-2.9-1.2-.5-.7-1.5-.8-2.1-.2-.7.5-.8 1.5-.2 2.1.1.1 1.9 2.3 5.2 2.3s5.2-2.2 5.2-2.3c.5-.6.4-1.6-.2-2.1s-1.6-.4-2.1.2z"/><circle cx="11.9" cy="34.2" r="2"/><circle cx="20.8" cy="34.2" r="2"/><circle cx="79.2" cy="34.2" r="2"/><circle cx="88.1" cy="34.2" r="2"/><path d="m83.7 51.1c7.6 0 13.8-6.2 13.8-13.8s-6.2-13.8-13.8-13.8-13.8 6.2-13.8 13.8 6.1 13.8 13.8 13.8zm0-24.6c5.9 0 10.8 4.8 10.8 10.8 0 5.9-4.8 10.8-10.8 10.8-5.9 0-10.8-4.8-10.8-10.8 0-5.9 4.8-10.8 10.8-10.8z"/><path d="m78.4 41.2c-.5.6-.4 1.6.2 2.1s1.6.4 2.1-.2c0 0 1-1.2 2.9-1.2 1.8 0 2.8 1.2 2.9 1.2.3.4.7.6 1.2.6.3 0 .7-.1 1-.3.7-.5.8-1.5.2-2.1-.1-.1-1.9-2.3-5.2-2.3-3.4-.2-5.2 2.1-5.3 2.2z"/><circle cx="45.6" cy="34.2" r="2"/><circle cx="54.4" cy="34.2" r="2"/><path d="m50 23.5c-7.6 0-13.8 6.2-13.8 13.8s6.2 13.8 13.8 13.8 13.8-6.2 13.8-13.8-6.2-13.8-13.8-13.8zm0 24.6c-5.9 0-10.8-4.8-10.8-10.8 0-5.9 4.8-10.8 10.8-10.8 5.9 0 10.8 4.8 10.8 10.8 0 5.9-4.9 10.8-10.8 10.8z"/><path d="m53.7 39.7h-7.4c-.8 0-1.5.7-1.5 1.5s.7 1.5 1.5 1.5h7.4c.8 0 1.5-.7 1.5-1.5s-.7-1.5-1.5-1.5z"/><path d="m22.2 56.4h-11.8c-2.3 0-4.2 1.9-4.2 4.2v11.8c0 2.3 1.9 4.2 4.2 4.2h11.8c2.3 0 4.2-1.9 4.2-4.2v-11.8c0-2.3-1.9-4.2-4.2-4.2zm1.1 16c0 .6-.5 1.1-1.1 1.1h-11.8c-.6 0-1.1-.5-1.1-1.1v-11.8c0-.6.5-1.1 1.1-1.1h11.8c.6 0 1.1.5 1.1 1.1z"/><path d="m55.9 56.4h-11.8c-2.3 0-4.2 1.9-4.2 4.2v11.8c0 2.3 1.9 4.2 4.2 4.2h11.8c2.3 0 4.2-1.9 4.2-4.2v-11.8c0-2.3-1.9-4.2-4.2-4.2zm1.1 16c0 .6-.5 1.1-1.1 1.1h-11.8c-.6 0-1.1-.5-1.1-1.1v-11.8c0-.6.5-1.1 1.1-1.1h11.8c.6 0 1.1.5 1.1 1.1z"/><path d="m89.6 56.4h-11.8c-2.3 0-4.2 1.9-4.2 4.2v11.8c0 2.3 1.9 4.2 4.2 4.2h11.8c2.3 0 4.2-1.9 4.2-4.2v-11.8c-.1-2.3-1.9-4.2-4.2-4.2zm1.1 16c0 .6-.5 1.1-1.1 1.1h-11.8c-.6 0-1.1-.5-1.1-1.1v-11.8c0-.6.5-1.1 1.1-1.1h11.8c.6 0 1.1.5 1.1 1.1z"/></g></svg>

<?xml version="1.0" encoding="utf-8"?>
<!-- Generator: Adobe Illustrator 24.2.0, SVG Export Plug-In . SVG Version: 6.00 Build 0)  -->
<svg version="1.1" xmlns="http://www.w3.org/2000/svg" xmlns:xlink="http://www.w3.org/1999/xlink" x="0px" y="0px"
	 viewBox="0 0 100 100" style="enable-background:new 0 0 100 100;" xml:space="preserve">
<style type="text/css">
	.st0{fill:#EB0029;}
</style>
<g id="Layer_2">
</g>
<g id="Layer_1">
	<g>
		<path class="st0" d="M5273.1,2387.6v-2c0-2.8-5-4-9.7-4s-9.7,1.3-9.7,4v2c0,1.8,0.7,3.6,2,4.9l5,4.9c0.3,0.3,0.4,0.6,0.4,1v6.4
			c0,0.4,0.2,0.7,0.6,0.8l2.9,0.9c0.5,0.1,1-0.2,1-0.8v-7.2c0-0.4,0.2-0.7,0.4-1l5.1-5C5272.4,2391.2,5273.1,2389.4,5273.1,2387.6z
			 M5263.4,2387.5c-4.8,0-7.4-1.3-7.5-1.8l0,0c0.1-0.5,2.7-1.8,7.5-1.8s7.3,1.3,7.5,1.8C5270.7,2386.2,5268.2,2387.5,5263.4,2387.5z
			"/>
		<path class="st0" d="M5268.4,2397.8c-0.6,0-1,0.4-1,1s0.4,1,1,1h4.3c0.6,0,1-0.4,1-1s-0.4-1-1-1H5268.4z"/>
		<path class="st0" d="M5272.7,2401.2h-4.3c-0.6,0-1,0.4-1,1s0.4,1,1,1h4.3c0.6,0,1-0.4,1-1
			C5273.7,2401.6,5273.3,2401.2,5272.7,2401.2z"/>
		<path class="st0" d="M5272.7,2404.5h-4.3c-0.6,0-1,0.4-1,1s0.4,1,1,1h4.3c0.6,0,1-0.4,1-1
			C5273.7,2405,5273.3,2404.5,5272.7,2404.5z"/>
	</g>
	<g>
		<path class="st0" d="M16.3,23.5c-7.6,0-13.8,6.2-13.8,13.8s6.2,13.8,13.8,13.8s13.8-6.2,13.8-13.8S24,23.5,16.3,23.5z M16.3,48.1
			c-5.9,0-10.8-4.8-10.8-10.8c0-5.9,4.8-10.8,10.8-10.8c5.9,0,10.8,4.8,10.8,10.8C27.1,43.2,22.3,48.1,16.3,48.1z"/>
		<path class="st0" d="M19.2,40.2c0,0-1,1.2-2.9,1.2c-1.8,0-2.8-1.2-2.9-1.2c-0.5-0.7-1.5-0.8-2.1-0.2c-0.7,0.5-0.8,1.5-0.2,2.1
			c0.1,0.1,1.9,2.3,5.2,2.3s5.2-2.2,5.2-2.3c0.5-0.6,0.4-1.6-0.2-2.1C20.7,39.5,19.7,39.6,19.2,40.2z"/>
		<circle class="st0" cx="11.9" cy="34.2" r="2"/>
		<circle class="st0" cx="20.8" cy="34.2" r="2"/>
		<circle class="st0" cx="79.2" cy="34.2" r="2"/>
		<circle class="st0" cx="88.1" cy="34.2" r="2"/>
		<path class="st0" d="M83.7,51.1c7.6,0,13.8-6.2,13.8-13.8s-6.2-13.8-13.8-13.8c-7.6,0-13.8,6.2-13.8,13.8S76,51.1,83.7,51.1z
			 M83.7,26.5c5.9,0,10.8,4.8,10.8,10.8c0,5.9-4.8,10.8-10.8,10.8c-5.9,0-10.8-4.8-10.8-10.8C72.9,31.4,77.7,26.5,83.7,26.5z"/>
		<path class="st0" d="M78.4,41.2c-0.5,0.6-0.4,1.6,0.2,2.1s1.6,0.4,2.1-0.2c0,0,1-1.2,2.9-1.2c1.8,0,2.8,1.2,2.9,1.2
			c0.3,0.4,0.7,0.6,1.2,0.6c0.3,0,0.7-0.1,1-0.3c0.7-0.5,0.8-1.5,0.2-2.1C88.8,41.2,87,39,83.7,39C80.3,38.8,78.5,41.1,78.4,41.2z"
			/>
		<circle class="st0" cx="45.6" cy="34.2" r="2"/>
		<circle class="st0" cx="54.4" cy="34.2" r="2"/>
		<path class="st0" d="M50,23.5c-7.6,0-13.8,6.2-13.8,13.8S42.4,51.1,50,51.1s13.8-6.2,13.8-13.8S57.6,23.5,50,23.5z M50,48.1
			c-5.9,0-10.8-4.8-10.8-10.8c0-5.9,4.8-10.8,10.8-10.8c5.9,0,10.8,4.8,10.8,10.8C60.8,43.2,55.9,48.1,50,48.1z"/>
		<path class="st0" d="M53.7,39.7h-7.4c-0.8,0-1.5,0.7-1.5,1.5s0.7,1.5,1.5,1.5h7.4c0.8,0,1.5-0.7,1.5-1.5S54.5,39.7,53.7,39.7z"/>
		<path class="st0" d="M22.2,56.4H10.4c-2.3,0-4.2,1.9-4.2,4.2v11.8c0,2.3,1.9,4.2,4.2,4.2h11.8c2.3,0,4.2-1.9,4.2-4.2V60.6
			C26.4,58.3,24.5,56.4,22.2,56.4z M23.3,72.4c0,0.6-0.5,1.1-1.1,1.1H10.4c-0.6,0-1.1-0.5-1.1-1.1V60.6c0-0.6,0.5-1.1,1.1-1.1h11.8
			c0.6,0,1.1,0.5,1.1,1.1C23.3,60.6,23.3,72.4,23.3,72.4z"/>
		<path class="st0" d="M55.9,56.4H44.1c-2.3,0-4.2,1.9-4.2,4.2v11.8c0,2.3,1.9,4.2,4.2,4.2h11.8c2.3,0,4.2-1.9,4.2-4.2V60.6
			C60.1,58.3,58.2,56.4,55.9,56.4z M57,72.4c0,0.6-0.5,1.1-1.1,1.1H44.1c-0.6,0-1.1-0.5-1.1-1.1V60.6c0-0.6,0.5-1.1,1.1-1.1h11.8
			c0.6,0,1.1,0.5,1.1,1.1C57,60.6,57,72.4,57,72.4z"/>
		<path class="st0" d="M89.6,56.4H77.8c-2.3,0-4.2,1.9-4.2,4.2v11.8c0,2.3,1.9,4.2,4.2,4.2h11.8c2.3,0,4.2-1.9,4.2-4.2V60.6
			C93.7,58.3,91.9,56.4,89.6,56.4z M90.7,72.4c0,0.6-0.5,1.1-1.1,1.1H77.8c-0.6,0-1.1-0.5-1.1-1.1V60.6c0-0.6,0.5-1.1,1.1-1.1h11.8
			c0.6,0,1.1,0.5,1.1,1.1C90.7,60.6,90.7,72.4,90.7,72.4z"/>
	</g>
</g>
</svg>
